Adwaita++/actions/16/view-time-schedule-baselined-remove.svg

<svg xmlns="http://www.w3.org/2000/svg" width="16" height="16" viewBox="0 0 16 16">
 <defs>
  <style id="current-color-scheme" type="text/css">
   .ColorScheme-Text { color:#474747; } .ColorScheme-Highlight { color:#4285f4; }
  </style>
 </defs>
 <path style="fill:currentColor" class="ColorScheme-Text" d="M 2.0078125 1 C -0.2421875 1 0.0078125 3 0.0078125 3 L 0.0078125 15 L 8.0078125 15 L 8.0078125 13 L 2.0078125 13 L 2.0078125 6 L 6.0078125 6 L 6.0078125 4 L 2.0078125 4 L 2.0078125 3 L 12.007812 3 L 12.007812 7 L 6.0078125 7 L 6.0078125 9 L 14.007812 9 L 14.007812 3 C 14.007812 1 12.007812 1 12.007812 1 L 2.0078125 1 z M 4.0078125 10 L 4.0078125 12 L 8.0078125 12 L 8.0078125 10 L 4.0078125 10 z M 11.414062 10.34375 L 10 11.757812 L 11.414062 13.171875 L 10 14.585938 L 11.414062 16 L 12.828125 14.585938 L 14.242188 16 L 15.65625 14.585938 L 14.242188 13.171875 L 15.65625 11.757812 L 14.242188 10.34375 L 12.828125 11.757812 L 11.414062 10.34375 z"/>
</svg>

<svg height="16" viewBox="0 0 16 16" width="16" xmlns="http://www.w3.org/2000/svg">
  <path d="m2.0078125 1c-2.25 0-2 2-2 2v12h8v-2h-6v-7h4v-2h-4v-1h9.9999995v4h-5.9999995v2h7.9999995v-6c0-2-2-2-2-2zm2 9v2h4v-2zm7.4062495.34375-1.414062 1.414062 1.414062 1.414063-1.414062 1.414063 1.414062 1.414062 1.414063-1.414062 1.414063 1.414062 1.414062-1.414062-1.414062-1.414063 1.414062-1.414063-1.414062-1.414062-1.414063 1.414062z" fill="#474747"/>
</svg>
